X: 3294
T: Belharbour, The
R: reel
M: 4/4
K: Gmajor
|:DG G2 DGBd|g3d egdB|A2GB A2BA|GBAF GFEF|
DG G2 DGBd|g3d egdB|G2 (3Bcd gedc|1 BGAF G2GE:|2 BGAF G2 (3Bcd||
|:dggf gd (3Bcd|g2af gfed|eaag abag|e2ag ed (3Bcd|
dggf gd (3Bcd|g2af gedB|GA (3Bcd gedc|1 BGAF G2 (3Bcd:|2 BGAF G2GE||

